icons/desktop/16/svg/shopping-cart-16.svg

<svg width="16" height="16" viewBox="0 0 16 16" fill="none" xmlns="http://www.w3.org/2000/svg">
<g clip-path="url(#clip0_8069_32642)">
<path d="M6.75 13C7.30228 13 7.75 13.4477 7.75 14C7.75 14.5523 7.30228 15 6.75 15C6.19772 15 5.75 14.5523 5.75 14C5.75 13.4477 6.19772 13 6.75 13Z" fill="black"/>
<path d="M13 13C13.5523 13 14 13.4477 14 14C14 14.5523 13.5523 15 13 15C12.4477 15 12 14.5523 12 14C12 13.4477 12.4477 13 13 13Z" fill="black"/>
<path fill-rule="evenodd" clip-rule="evenodd" d="M1.82422 1C3.06713 1.0001 4.16049 1.83913 4.48047 3.03906L4.8418 4.39062C7.8898 3.92362 11.013 3.87809 14.041 4.24609C14.677 4.3231 15.2513 4.67497 15.6123 5.20996C15.9802 5.75285 16.0927 6.42575 15.9238 7.05762L15.2051 9.74023C14.928 10.7751 14.0581 11.563 12.9883 11.7451C11.9923 11.9141 10.9767 12 9.9707 12C8.95994 12 7.94018 11.9141 6.94141 11.7451C5.86946 11.5621 4.99773 10.7752 4.72168 9.73926L3.57324 5.45117C3.57025 5.44119 3.56745 5.42991 3.56445 5.41992L3.03027 3.42676C2.88524 2.88092 2.38809 2.50011 1.82324 2.5H0.75C0.336 2.5 0 2.164 0 1.75C0 1.336 0.336 1 0.75 1H1.82422ZM13.8584 5.73535C11.0216 5.39137 8.09329 5.4257 5.23145 5.84863L6.16992 9.35156C6.29592 9.82356 6.69741 10.1826 7.19141 10.2666C9.0143 10.5765 10.9045 10.5786 12.7354 10.2666C13.2362 10.1815 13.6269 9.83141 13.7549 9.35254L14.4736 6.6709C14.5306 6.4589 14.4921 6.2328 14.3691 6.0498C14.2982 5.94785 14.1401 5.77047 13.8584 5.73535Z" fill="black"/>
</g>
<defs>
<clipPath id="clip0_8069_32642">
<rect width="16" height="16" fill="white"/>
</clipPath>
</defs>
</svg>

<!-- This Source Code Form is subject to the terms of the Mozilla Public
   - License, v. 2.0. If a copy of the MPL was not distributed with this
   - file, You can obtain one at http://mozilla.org/MPL/2.0/. -->
<svg xmlns="http://www.w3.org/2000/svg" width="16" height="16" fill="context-fill" fill-opacity="context-fill-opacity" viewBox="0 0 16 16">
    <g clip-path="url(#clip0_8069_32642)">
        <path d="M6.75 13a1 1 0 1 1 0 2 1 1 0 0 1 0-2M13 13a1 1 0 1 1 0 2 1 1 0 0 1 0-2" />
        <path fill-rule="evenodd" d="M1.824 1c1.243 0 2.336.84 2.656 2.04l.362 1.35a34 34 0 0 1 9.199-.144 2.22 2.22 0 0 1 1.571.964c.368.543.48 1.216.312 1.848l-.719 2.682a2.78 2.78 0 0 1-2.217 2.005 18.1 18.1 0 0 1-6.047 0 2.78 2.78 0 0 1-2.22-2.006L3.574 5.451l-.009-.031-.534-1.993A1.25 1.25 0 0 0 1.823 2.5H.75a.75.75 0 0 1 0-1.5zm12.034 4.735a32.5 32.5 0 0 0-8.627.114l.939 3.503c.126.472.527.83 1.021.915a16.6 16.6 0 0 0 5.544 0c.501-.085.892-.436 1.02-.914l.719-2.682a.76.76 0 0 0-.105-.621.73.73 0 0 0-.51-.315" clip-rule="evenodd" />
    </g>
</svg>
